X:12001
T:Lark in the Morning, The
R:Jig
C:Trad
O:England
M:6/8
L:1/8
Q:1/8=200
K:Bm
B|"D"AFA AFA|"G"BGB BdB|"D"AFA Ade|"Bm"fed BdB|
"D"AFA AFA|"G"BGB BdB|"D"def afe|"Bm"fdB B2:|
|:A|"D"def aff|"D"bff afe|"D"def aff|"Bm"fdB BAB|
"D"def aff|"D"bff aff|"G"gag "D"fgf|"Em"edB B2:|
|:A|"D"d2 f fef|"D"fef fef|"D"d2 f fef|"Bm"edB BAB|
"D"d2 f fef|"D"fef fef|"G"gag "D"fgf|"Em"edB B2:|
|:B|"D"Add fdd|"D"edd fdd|"D"Add fdd|"Bm"edB BAF|
"D"Add fdd|"D"edd fdd|"G"gag "D"fgf|"Em"edB B2:|

